!!!COM: Robert Franz
!!!CNT: Deutscher
!!!TXO: Deutsche 
!!!OTL: Childe Harold
!!!OPS: Op. 38
!!!ONM: No. 3
!!!ONB: Original key: Original key
!!!LYR: H. Heine
!!!ENC: Brian Bice
!!!YOR: Vocal Album, G. Schirmer, Inc., 1907
!!!ODT: 1867/
!!NB: Vocal melody and text only encoded.
**kern	**silbe
*clefG2 	*
*k[b-]	*
*M3/4	*
=2	=2
4r	.
4r	.
{(12d	{Ei-
12e)	|
12f	-ne
=3	=3
4e	star-
4a	-ke
(12d	schwar-
12e)	|
12f	-ze
=4	=4
4e	Bar-
4A	-ke
(12a	se-
12g)	|
12f	-gelt
=5	=5
4e	trau-
4g	-er-
(12f	-voll
12e)	|
12d	da-
=6	=6
4.a}	-hin}
8r	.
{(12d	{Die
12e)	|
12f	ver-
=7	=7
4e	-mumm-
4a	-ten
(12d	und
12e)	|
12f	ver-
=8	=8
4e	-stumm-
4A	-ten
(12a	Lei-
12bn)	|
12cc	-chen-
=9	=9
4bn	-hu2-
4a	-ter
(12g#	sit-
12a)	|
12bn	-zen
=10	=10
4.a}	drin.}
8r	.
4r	.
=11	=11
4r	.
4r	.
{8b-	{To-
8c#	-dter
=12	=12
4e	Dich-
4d}	-ter}
4r	.
=13	=13
4r	.
4r	.
{8b-	{stil-
8c#	-le
=14	=14
4e	liegt
4d}	er,}
{8a	{mit
8bn	ent-
=15	=15
4cc	-blo2ss-
4bn	-tem
8a	An-
8g#	-ge-
=16	=16
4.a}	-sicht;}
8r	.
4r	.
=17	=17
4r	.
4r	.
{8cc	{sei-
8d#	-ne
=18	=18
4f#	blau-
4e}	-en}
4r	.
=19	=19
4r	.
4r	.
{8cc	{Au-
8d#	-gen
=20	=20
4f#	schau-
4e}	-en}
4r	.
=21	=21
4r	.
4r	.
{8.a	{im-
16g	-mer
=22	=22
4f	noch
4e	zum
(12d	Him-
12e)	|
12f	-mels-
=23	=23
4.e}	-licht.}
8r	.
4r	.
=24	=24
4r	.
4r	.
{(12d	{Aus
12e)	|
12f	der
=25	=25
4e	Tie-
4a	-fe
(12d	klingt',
12e)	|
12f	als
=26	=26
4e	rie-
4A	-fe
8a	ei-
8bn	-ne
=27	=27
4cc	kran-
4bn	-ke
8a	Ni-
8g#	-xen-
=28	=28
4.a}	-braut,}
8r	.
{(12d	{und
12e)	|
12f	die
=29	=29
4e	Wel-
4a	-len
(12d	sie
12e)	|
12f	zer-
=30	=30
4e	-schel-
4A	-len
(12dd	an
12ee)	|
12ff	dem
=31	=31
4ee	Kahn,
4dd	wie
8.ccn	Kla-
16b-	-ge-
=32	=32
4.a}	-laut.}
8r	.
4r	.
*-	*-
